X:1
T: Triad in L# Major
N:
C:Tune is "Pipe on the Hob" Irish trad.
S: Play  3  times
A:
O:
R:
M:6/8
K:D
I:speed 150
%W: A1
% voice 1 (1 lines, 41 notes)
K:D
M:6/8
L:1/16
A2 |d2 c2 d2 A4 G2 F4 D2 D2 E2 D2 E4 E2 =c2 B2 c2 E4 D2 D4 A2 |d2 =c2 B2 c2 B2 A2 B2 A2 G2 F2 E2 D2 E4 E2 =c2 B2 c2 E4 D2 D4 A2 |
%W: A2
% voice 1 (1 lines, 40 notes)
d2 c2 d2 A4 G2 F4 D2 D2 E2 D2 E4 E2 =c2 B2 c2 E4 D2 D4 A2 |d2 =c2 B2 c2 B2 A2 B2 A2 G2 F2 E2 D2 E4 E2 =c2 B2 c2 E4 D2 D4 g2 |
%W: B1
% voice 1 (1 lines, 38 notes)
f4 d2 d2 c2 d2 f4 d2 d2 c2 d2 e4 =c2 c2 B2 c2 e4 =c2 c2 B2 c2 |f4 d2 d2 c2 d2 f4 d2 d2 c2 d2 e4 e2 a4 g2 f4 d2 d4 g2 |
%W: B2
% voice 1 (1 lines, 42 notes)
f4 d2 d2 c2 d2 f4 d2 d2 c2 d2 e4 =c2 c2 B2 c2 e4 =c2 c2 B2 c2 |f2 e2 f2 g2 f2 g2 a2 f2 a2 g2 f2 e2 f2 e2 d2 =c2 A2 G2 A2 d2 c2 d4 ||
